X: 19445
T: Jackson's
R: jig
M: 6/8
K: Gmajor
|:A|B2 G Bcd|cee efg|dBd gdB|ABA AGA|
B2 G Bcd|cee efg|dBd gdB|cAF G2:|
|:d|gfg bag|fed ^cde|dBd gdB|
[1 ABA ABd|gfg bag|fed ^cde|dBd gdB|cAF G2:|
[2 ABA ABc|B2 G Bcd|cee efg|dBd gdB|cAF G2||

